src/assets/learn_more.svg

<svg width="116" height="24" viewBox="0 0 116 24" fill="none" xmlns="http://www.w3.org/2000/svg">
<g clip-path="url(#clip0_3518_1175)">
<path d="M1.14773 18V6.36364H3.25568V16.233H8.38068V18H1.14773ZM13.983 18.1705C13.108 18.1705 12.3523 17.9886 11.7159 17.625C11.0833 17.2576 10.5966 16.7386 10.2557 16.0682C9.91477 15.3939 9.74432 14.6004 9.74432 13.6875C9.74432 12.7898 9.91477 12.0019 10.2557 11.3239C10.6004 10.642 11.0814 10.1117 11.6989 9.73295C12.3163 9.35038 13.0417 9.15909 13.875 9.15909C14.4129 9.15909 14.9205 9.24621 15.3977 9.42045C15.8788 9.59091 16.303 9.85606 16.6705 10.2159C17.0417 10.5758 17.3333 11.0341 17.5455 11.5909C17.7576 12.1439 17.8636 12.803 17.8636 13.5682V14.1989H10.7102V12.8125H15.892C15.8883 12.4186 15.803 12.0682 15.6364 11.7614C15.4697 11.4508 15.2367 11.2064 14.9375 11.0284C14.642 10.8504 14.2973 10.7614 13.9034 10.7614C13.483 10.7614 13.1136 10.8636 12.7955 11.0682C12.4773 11.2689 12.2292 11.5341 12.0511 11.8636C11.8769 12.1894 11.7879 12.5473 11.7841 12.9375V14.1477C11.7841 14.6553 11.8769 15.0909 12.0625 15.4545C12.2481 15.8144 12.5076 16.0909 12.8409 16.2841C13.1742 16.4735 13.5644 16.5682 14.0114 16.5682C14.3106 16.5682 14.5814 16.5265 14.8239 16.4432C15.0663 16.3561 15.2765 16.2292 15.4545 16.0625C15.6326 15.8958 15.767 15.6894 15.858 15.4432L17.7784 15.6591C17.6572 16.1667 17.4261 16.6098 17.0852 16.9886C16.7481 17.3636 16.3163 17.6553 15.7898 17.8636C15.2633 18.0682 14.661 18.1705 13.983 18.1705ZM22.1151 18.1761C21.562 18.1761 21.0639 18.0777 20.6207 17.8807C20.1813 17.6799 19.8329 17.3845 19.5753 16.9943C19.3215 16.6042 19.1946 16.1231 19.1946 15.5511C19.1946 15.0587 19.2855 14.6515 19.4673 14.3295C19.6491 14.0076 19.8973 13.75 20.2116 13.5568C20.526 13.3636 20.8802 13.2178 21.2741 13.1193C21.6719 13.017 22.0829 12.9432 22.5071 12.8977C23.0185 12.8447 23.4332 12.7973 23.7514 12.7557C24.0696 12.7102 24.3007 12.642 24.4446 12.5511C24.5923 12.4564 24.6662 12.3106 24.6662 12.1136V12.0795C24.6662 11.6515 24.5393 11.3201 24.2855 11.0852C24.0317 10.8504 23.6662 10.733 23.1889 10.733C22.6851 10.733 22.2855 10.8428 21.9901 11.0625C21.6984 11.2822 21.5014 11.5417 21.3991 11.8409L19.4787 11.5682C19.6302 11.0379 19.8802 10.5947 20.2287 10.2386C20.5772 9.87879 21.0033 9.60985 21.5071 9.43182C22.0109 9.25 22.5677 9.15909 23.1776 9.15909C23.598 9.15909 24.0166 9.20833 24.4332 9.30682C24.8499 9.4053 25.2306 9.56818 25.5753 9.79545C25.92 10.0189 26.1965 10.3239 26.4048 10.7102C26.617 11.0966 26.723 11.5795 26.723 12.1591V18H24.7457V16.8011H24.6776C24.5526 17.0436 24.3764 17.2708 24.1491 17.483C23.9257 17.6913 23.6435 17.8598 23.3026 17.9886C22.9654 18.1136 22.5696 18.1761 22.1151 18.1761ZM22.6491 16.6648C23.062 16.6648 23.42 16.5833 23.723 16.4205C24.026 16.2538 24.259 16.0341 24.4219 15.7614C24.5885 15.4886 24.6719 15.1913 24.6719 14.8693V13.8409C24.6075 13.8939 24.4976 13.9432 24.3423 13.9886C24.1908 14.0341 24.0204 14.0739 23.831 14.108C23.6416 14.142 23.4541 14.1723 23.2685 14.1989C23.0829 14.2254 22.9219 14.2481 22.7855 14.267C22.4787 14.3087 22.2041 14.3769 21.9616 14.4716C21.7192 14.5663 21.5279 14.6989 21.3878 14.8693C21.2476 15.036 21.1776 15.2519 21.1776 15.517C21.1776 15.8958 21.3158 16.1818 21.5923 16.375C21.8688 16.5682 22.2211 16.6648 22.6491 16.6648ZM28.7912 18V9.27273H30.7855V10.7273H30.8764C31.0355 10.2235 31.3082 9.83523 31.6946 9.5625C32.0848 9.28598 32.5298 9.14773 33.0298 9.14773C33.1435 9.14773 33.2704 9.15341 33.4105 9.16477C33.5545 9.17235 33.6738 9.18561 33.7685 9.20455V11.0966C33.6813 11.0663 33.5431 11.0398 33.3537 11.017C33.1681 10.9905 32.9882 10.9773 32.8139 10.9773C32.4389 10.9773 32.1018 11.0587 31.8026 11.2216C31.5071 11.3807 31.2741 11.6023 31.1037 11.8864C30.9332 12.1705 30.848 12.4981 30.848 12.8693V18H28.7912ZM37.1918 12.8864V18H35.1349V9.27273H37.1009V10.7557H37.2031C37.4039 10.267 37.724 9.87879 38.1634 9.59091C38.6065 9.30303 39.1539 9.15909 39.8054 9.15909C40.4077 9.15909 40.9323 9.28788 41.3793 9.54545C41.83 9.80303 42.1785 10.1761 42.4247 10.6648C42.6747 11.1534 42.7978 11.7462 42.794 12.4432V18H40.7372V12.7614C40.7372 12.178 40.5857 11.7216 40.2827 11.392C39.9834 11.0625 39.5687 10.8977 39.0384 10.8977C38.6785 10.8977 38.3584 10.9773 38.0781 11.1364C37.8016 11.2917 37.5838 11.517 37.4247 11.8125C37.2694 12.108 37.1918 12.4659 37.1918 12.8864ZM48.8537 18V9.27273H50.8196V10.7557H50.9219C51.1037 10.2557 51.4048 9.86553 51.8253 9.58523C52.2457 9.30114 52.7476 9.15909 53.331 9.15909C53.9219 9.15909 54.42 9.30303 54.8253 9.59091C55.2344 9.875 55.5223 10.2633 55.6889 10.7557H55.7798C55.973 10.2708 56.2988 9.88447 56.7571 9.59659C57.2192 9.30492 57.7666 9.15909 58.3991 9.15909C59.2022 9.15909 59.8575 9.41288 60.3651 9.92045C60.8726 10.428 61.1264 11.1686 61.1264 12.142V18H59.0639V12.4602C59.0639 11.9186 58.92 11.5227 58.6321 11.2727C58.3442 11.0189 57.992 10.892 57.5753 10.892C57.0791 10.892 56.6908 11.0473 56.4105 11.358C56.134 11.6648 55.9957 12.0644 55.9957 12.5568V18H53.9787V12.375C53.9787 11.9242 53.8423 11.5644 53.5696 11.2955C53.3007 11.0265 52.9484 10.892 52.5128 10.892C52.2173 10.892 51.9484 10.9678 51.706 11.1193C51.4635 11.267 51.2704 11.4773 51.1264 11.75C50.9825 12.0189 50.9105 12.3333 50.9105 12.6932V18H48.8537ZM67.0199 18.1705C66.1676 18.1705 65.429 17.983 64.804 17.608C64.179 17.233 63.6941 16.7083 63.3494 16.0341C63.0085 15.3598 62.8381 14.572 62.8381 13.6705C62.8381 12.7689 63.0085 11.9792 63.3494 11.3011C63.6941 10.6231 64.179 10.0966 64.804 9.72159C65.429 9.34659 66.1676 9.15909 67.0199 9.15909C67.8722 9.15909 68.6108 9.34659 69.2358 9.72159C69.8608 10.0966 70.3438 10.6231 70.6847 11.3011C71.0294 11.9792 71.2017 12.7689 71.2017 13.6705C71.2017 14.572 71.0294 15.3598 70.6847 16.0341C70.3438 16.7083 69.8608 17.233 69.2358 17.608C68.6108 17.983 67.8722 18.1705 67.0199 18.1705ZM67.0312 16.5227C67.4934 16.5227 67.8797 16.3958 68.1903 16.142C68.5009 15.8845 68.732 15.5398 68.8835 15.108C69.0388 14.6761 69.1165 14.1951 69.1165 13.6648C69.1165 13.1307 69.0388 12.6477 68.8835 12.2159C68.732 11.7803 68.5009 11.4337 68.1903 11.1761C67.8797 10.9186 67.4934 10.7898 67.0312 10.7898C66.5578 10.7898 66.1638 10.9186 65.8494 11.1761C65.5388 11.4337 65.3059 11.7803 65.1506 12.2159C64.9991 12.6477 64.9233 13.1307 64.9233 13.6648C64.9233 14.1951 64.9991 14.6761 65.1506 15.108C65.3059 15.5398 65.5388 15.8845 65.8494 16.142C66.1638 16.3958 66.5578 16.5227 67.0312 16.5227ZM72.9474 18V9.27273H74.9418V10.7273H75.0327C75.1918 10.2235 75.4645 9.83523 75.8509 9.5625C76.241 9.28598 76.6861 9.14773 77.1861 9.14773C77.2997 9.14773 77.4266 9.15341 77.5668 9.16477C77.7107 9.17235 77.83 9.18561 77.9247 9.20455V11.0966C77.8376 11.0663 77.6993 11.0398 77.5099 11.017C77.3243 10.9905 77.1444 10.9773 76.9702 10.9773C76.5952 10.9773 76.258 11.0587 75.9588 11.2216C75.6634 11.3807 75.4304 11.6023 75.2599 11.8864C75.0895 12.1705 75.0043 12.4981 75.0043 12.8693V18H72.9474ZM82.7955 18.1705C81.9205 18.1705 81.1648 17.9886 80.5284 17.625C79.8958 17.2576 79.4091 16.7386 79.0682 16.0682C78.7273 15.3939 78.5568 14.6004 78.5568 13.6875C78.5568 12.7898 78.7273 12.0019 79.0682 11.3239C79.4129 10.642 79.8939 10.1117 80.5114 9.73295C81.1288 9.35038 81.8542 9.15909 82.6875 9.15909C83.2254 9.15909 83.733 9.24621 84.2102 9.42045C84.6913 9.59091 85.1155 9.85606 85.483 10.2159C85.8542 10.5758 86.1458 11.0341 86.358 11.5909C86.5701 12.1439 86.6761 12.803 86.6761 13.5682V14.1989H79.5227V12.8125H84.7045C84.7008 12.4186 84.6155 12.0682 84.4489 11.7614C84.2822 11.4508 84.0492 11.2064 83.75 11.0284C83.4545 10.8504 83.1098 10.7614 82.7159 10.7614C82.2955 10.7614 81.9261 10.8636 81.608 11.0682C81.2898 11.2689 81.0417 11.5341 80.8636 11.8636C80.6894 12.1894 80.6004 12.5473 80.5966 12.9375V14.1477C80.5966 14.6553 80.6894 15.0909 80.875 15.4545C81.0606 15.8144 81.3201 16.0909 81.6534 16.2841C81.9867 16.4735 82.3769 16.5682 82.8239 16.5682C83.1231 16.5682 83.3939 16.5265 83.6364 16.4432C83.8788 16.3561 84.089 16.2292 84.267 16.0625C84.4451 15.8958 84.5795 15.6894 84.6705 15.4432L86.5909 15.6591C86.4697 16.1667 86.2386 16.6098 85.8977 16.9886C85.5606 17.3636 85.1288 17.6553 84.6023 17.8636C84.0758 18.0682 83.4735 18.1705 82.7955 18.1705Z" fill="#6941C6"/>
<path d="M100.167 12H111.833M111.833 12L106 6.16669M111.833 12L106 17.8334" stroke="#6941C6" stroke-width="1.66667" stroke-linecap="round" stroke-linejoin="round"/>
</g>
<defs>
<clipPath id="clip0_3518_1175">
<rect width="116" height="24" fill="white"/>
</clipPath>
</defs>
</svg>

<svg xmlns="http://www.w3.org/2000/svg" width="116" height="24" fill="none"><g clip-path="url(#a)"><path fill="#6941C6" d="M1.148 18V6.364h2.108v9.869H8.38V18zm12.835.17q-1.312 0-2.267-.545a3.7 3.7 0 0 1-1.46-1.557q-.512-1.011-.512-2.38 0-1.347.512-2.364a3.87 3.87 0 0 1 1.443-1.591q.926-.574 2.176-.574.807 0 1.523.261.72.255 1.273.796.555.54.875 1.375.318.83.318 1.977v.63H10.71v-1.386h5.182a2.2 2.2 0 0 0-.256-1.05 1.86 1.86 0 0 0-.698-.734 1.97 1.97 0 0 0-1.035-.267q-.63 0-1.107.307-.478.3-.745.796a2.3 2.3 0 0 0-.267 1.073v1.21q0 .762.278 1.307.28.54.779.83.5.284 1.17.284.45 0 .813-.125.364-.13.63-.38.268-.25.404-.62l1.92.216q-.18.761-.693 1.33a3.4 3.4 0 0 1-1.295.875q-.79.306-1.807.306m8.132.006a3.6 3.6 0 0 1-1.494-.295q-.66-.302-1.046-.887-.38-.584-.38-1.443 0-.739.272-1.222.273-.482.745-.772a3.8 3.8 0 0 1 1.062-.438 9 9 0 0 1 1.233-.221q.767-.08 1.244-.142.478-.069.694-.205.22-.142.221-.437v-.035q0-.642-.38-.994-.381-.352-1.097-.352-.756 0-1.199.33-.438.33-.59.778l-1.921-.273q.226-.795.75-1.33.522-.54 1.278-.806a4.9 4.9 0 0 1 1.67-.273q.632 0 1.256.148.626.147 1.142.488.518.336.83.915.318.58.318 1.45V18h-1.977v-1.199h-.068q-.188.364-.529.682a2.5 2.5 0 0 1-.846.506q-.506.187-1.188.187m.534-1.511q.62 0 1.074-.244.455-.25.699-.66.25-.409.25-.892v-1.028a1 1 0 0 1-.33.148 5 5 0 0 1-.511.119q-.285.051-.562.09l-.483.069q-.46.063-.824.205a1.37 1.37 0 0 0-.574.397q-.21.25-.21.648 0 .568.414.858.416.29 1.057.29M28.791 18V9.273h1.994v1.454h.091q.24-.756.819-1.165.585-.414 1.335-.414.17 0 .38.017.217.01.359.04v1.892a2 2 0 0 0-.415-.08 4 4 0 0 0-.54-.04 2.1 2.1 0 0 0-1.011.245q-.444.238-.7.664t-.255.983V18zm8.4-5.114V18h-2.056V9.273H37.1v1.483h.102q.3-.733.96-1.165.665-.432 1.642-.432.904 0 1.574.386.677.387 1.046 1.12.375.732.369 1.778V18h-2.057v-5.239q0-.875-.454-1.369-.45-.494-1.245-.494-.54 0-.96.238-.414.233-.653.677-.233.443-.233 1.073M48.855 18V9.273h1.966v1.483h.102q.273-.75.903-1.17.63-.427 1.506-.427.886 0 1.494.432.614.426.864 1.165h.09q.291-.728.978-1.16.694-.437 1.642-.437 1.205 0 1.966.761.761.762.761 2.222V18h-2.062v-5.54q0-.812-.432-1.187a1.54 1.54 0 0 0-1.057-.381q-.744 0-1.165.466-.414.46-.414 1.199V18h-2.017v-5.625q0-.675-.41-1.08-.402-.402-1.056-.403-.444 0-.807.227a1.6 1.6 0 0 0-.58.631 2 2 0 0 0-.215.943V18zm18.166.17q-1.278 0-2.216-.562a3.8 3.8 0 0 1-1.455-1.574q-.51-1.011-.51-2.363t.51-2.37a3.8 3.8 0 0 1 1.455-1.58q.938-.562 2.216-.562t2.216.563a3.78 3.78 0 0 1 1.449 1.58q.516 1.016.517 2.369 0 1.352-.517 2.363a3.8 3.8 0 0 1-1.45 1.574q-.936.563-2.215.563m.011-1.647q.693 0 1.16-.381.465-.386.692-1.034.234-.648.234-1.443 0-.8-.234-1.45-.227-.652-.693-1.039t-1.159-.386q-.71 0-1.182.386-.465.386-.698 1.04a4.4 4.4 0 0 0-.228 1.449q0 .795.228 1.443.233.648.698 1.034.472.38 1.182.38M72.947 18V9.273h1.995v1.454h.09q.24-.756.819-1.165.585-.414 1.335-.414.17 0 .38.017.217.01.359.04v1.892a2 2 0 0 0-.415-.08 4 4 0 0 0-.54-.04 2.1 2.1 0 0 0-1.011.245q-.444.238-.7.664t-.255.983V18zm9.849.17q-1.313 0-2.268-.545a3.7 3.7 0 0 1-1.46-1.557q-.51-1.011-.511-2.38 0-1.347.511-2.364a3.87 3.87 0 0 1 1.443-1.591q.927-.574 2.177-.574.806 0 1.522.261.722.255 1.273.796.557.54.875 1.375.318.83.318 1.977v.63h-7.153v-1.386h5.182a2.2 2.2 0 0 0-.256-1.05 1.86 1.86 0 0 0-.699-.734 1.97 1.97 0 0 0-1.034-.267q-.63 0-1.108.307-.477.3-.744.796a2.3 2.3 0 0 0-.267 1.073v1.21q0 .762.278 1.307.279.54.778.83.501.284 1.17.284.45 0 .813-.125.364-.13.631-.38t.404-.62l1.92.216q-.181.761-.693 1.33a3.4 3.4 0 0 1-1.296.875q-.79.306-1.806.306"/><path stroke="#6941C6" stroke-linecap="round" stroke-linejoin="round" stroke-width="1.667" d="M100.167 12h11.666m0 0L106 6.167M111.833 12 106 17.833"/></g><defs><clipPath id="a"><path fill="#fff" d="M0 0h116v24H0z"/></clipPath></defs></svg>
